images/business-set1-02.svg

<?xml version="1.0" encoding="UTF-8" standalone="no"?>
<svg width="80px" height="80px" viewBox="0 0 80 80" version="1.1" xmlns="http://www.w3.org/2000/svg" xmlns:xlink="http://www.w3.org/1999/xlink" xmlns:sketch="http://www.bohemiancoding.com/sketch/ns">
    <!-- Generator: Sketch 3.3.3 (12081) - http://www.bohemiancoding.com/sketch -->
    <title>business-set1-02</title>
    <desc>Created with Sketch.</desc>
    <defs></defs>
    <g id="Page-1" stroke="none" stroke-width="1" fill="none" fill-rule="evenodd" sketch:type="MSPage">
        <g id="business-set1-02" sketch:type="MSArtboardGroup" fill="#CD2122">
            <path d="M29.4116889,40.563414 L55.6782905,36.0057968 C55.9497749,35.9584335 56.1323921,35.6996445 56.0845405,35.4276718 C56.0376655,35.1556991 55.7837593,34.9755234 55.5064155,35.0204452 L29.2398139,39.5780625 C28.9683295,39.6254258 28.7857123,39.8842148 28.8335639,40.1561875 C28.8755561,40.3993516 29.0864936,40.5707383 29.3247748,40.5707383 C29.3530951,40.5707382 29.382392,40.5682968 29.4116889,40.563414 L29.4116889,40.563414 Z M32.1851264,56.5516953 L58.4527045,51.9940781 C58.5825873,51.9711289 58.6987983,51.8978867 58.7759467,51.7894883 C58.8521186,51.6810899 58.882392,51.5463242 58.8589545,51.4159531 L57.0747748,41.1376328 C57.0278998,40.8651719 56.7759467,40.6845078 56.4966498,40.7304062 L30.2300482,45.2880234 C29.9585638,45.3353867 29.7759466,45.5941757 29.8237982,45.8661484 L31.6070013,56.1444687 C31.6294622,56.2753281 31.7027044,56.391539 31.8111029,56.4677109 C31.8960638,56.5277695 31.9966498,56.5590195 32.0991888,56.5590195 C32.1275092,56.5590195 32.1558295,56.5565781 32.1851264,56.5516953 L32.1851264,56.5516953 Z M56.1753607,41.801207 L57.7886419,51.0941758 L32.5064154,55.4808945 L30.8941107,46.1879257 L56.1753607,41.801207 L56.1753607,41.801207 Z M49.3159857,53.5795273 C49.5874701,53.532164 49.7700873,53.273375 49.7222357,53.0014023 L48.1372748,43.8651718 C48.0903998,43.5931991 47.8316107,43.410582 47.5591498,43.4579452 C47.2876654,43.5053085 47.1050482,43.7640975 47.1528998,44.0360702 L48.7378607,53.1723007 C48.7798529,53.4154648 48.9907904,53.5868515 49.2290716,53.5868515 C49.257392,53.5868515 49.2866889,53.5844101 49.3159857,53.5795273 L49.3159857,53.5795273 Z M34.0025092,34.4974961 C35.8208686,34.1820664 37.4097358,33.1806016 38.476142,31.6781602 C39.5445014,30.174254 39.9595404,28.3505235 39.6450873,26.5433946 C39.0737982,23.2470079 36.2144232,20.8544278 32.8472357,20.8544278 C32.4497748,20.8544278 32.047431,20.8890958 31.6519232,20.9574551 C29.835517,21.2728848 28.2466498,22.2738633 27.1802435,23.7767929 C26.1118841,25.2806991 25.6968451,27.1039413 26.0103216,28.9096054 C26.5825872,32.2069687 29.4419622,34.6005234 32.8081732,34.6005234 L32.8081732,34.6005234 C33.2056342,34.6005234 33.6070014,34.5658554 34.0025092,34.4974961 L34.0025092,34.4974961 Z M38.6607123,26.7142929 C38.9282904,28.2572617 38.5737982,29.8143906 37.6607123,31.0990585 C36.7486029,32.3851913 35.3882514,33.2421249 33.8306342,33.5121444 C33.4927436,33.5707382 33.1489936,33.6005233 32.8081733,33.6005233 L32.8081733,33.6005233 C29.9292671,33.6005233 27.4839545,31.5556014 26.9946967,28.7387069 C26.7280951,27.197203 27.0825873,25.6410507 27.9956733,24.3558944 C28.9087592,23.0697616 30.2681342,22.212828 31.8237983,21.9428066 C32.1616889,21.8842128 32.5064155,21.8544277 32.8472358,21.8544277 C35.7271185,21.8544277 38.1714545,23.898375 38.6607123,26.7142929 L38.6607123,26.7142929 Z M45.7495795,33.0228867 L54.8853217,31.4374375 C55.1568061,31.3900742 55.3394233,31.1312852 55.2915717,30.8593125 C55.2437201,30.5868516 54.9927436,30.4066758 54.7134467,30.4520859 L45.5777045,32.0375351 C45.3062201,32.0848984 45.1236029,32.3436874 45.1714545,32.6156601 C45.2134467,32.8588242 45.4243842,33.0302109 45.6626654,33.0302109 C45.6909857,33.0302109 45.7202826,33.0277695 45.7495795,33.0228867 L45.7495795,33.0228867 Z M44.7583685,27.3124375 L53.8950873,25.7274766 C54.1665717,25.6801133 54.3491889,25.4213243 54.3013373,25.1493516 C54.2544623,24.8773789 53.9995795,24.6976914 53.7232123,24.742125 L44.5864935,26.3270859 C44.3150091,26.3744492 44.1323919,26.6332382 44.1802435,26.9052109 C44.2222357,27.148375 44.4331732,27.3197617 44.6714544,27.3197617 C44.6997748,27.3197617 44.7290717,27.3173203 44.7583685,27.3124375 L44.7583685,27.3124375 Z M43.7671576,21.6024746 L52.9038764,20.0170254 C53.1753608,19.9696621 53.357978,19.7108731 53.3101264,19.4389004 C53.2632514,19.1669277 53.007392,18.9843106 52.7320014,19.0316738 L43.5952826,20.617123 C43.3237982,20.6644863 43.141181,20.9232753 43.1890326,21.195248 C43.2310248,21.4384121 43.4419623,21.6097988 43.6802435,21.6097988 C43.7085639,21.6097988 43.7378607,21.6073574 43.7671576,21.6024746 L43.7671576,21.6024746 Z M33.1402045,28.1522812 L38.8501654,27.1615585 C39.1216498,27.1141952 39.304267,26.8554062 39.2564154,26.5834335 C39.2095404,26.3114608 38.9507513,26.1317733 38.6782904,26.1762069 L33.4614935,27.0814803 L32.5552435,21.863705 C32.5083685,21.5912441 32.2486029,21.4110683 31.9771185,21.4564784 C31.7056341,21.5038417 31.5230169,21.7626307 31.5708685,22.0346053 L32.5620794,27.7450545 C32.6040716,27.9882186 32.8150091,28.1596053 33.0532903,28.1596053 C33.0816107,28.1596054 33.1109076,28.157164 33.1402045,28.1522812 L33.1402045,28.1522812 Z M27.4663764,63.2528672 L64.0112983,56.9115586 C64.2827827,56.8641953 64.4653999,56.6054063 64.4175483,56.3334336 L56.6890327,11.7938828 C56.6665718,11.6630234 56.5933296,11.5468125 56.4849311,11.4706406 C56.3765327,11.3939804 56.2456733,11.3632187 56.1109077,11.3866562 L19.5659858,17.7279648 C19.2945014,17.7753281 19.1118842,18.0341171 19.1597358,18.3060898 L26.8882514,62.8456406 C26.9107123,62.9765 26.9839545,63.0927109 27.092353,63.1688828 C27.1773139,63.2289414 27.2778999,63.2601914 27.3804389,63.2601914 C27.4087592,63.2601914 27.4370795,63.25775 27.4663764,63.2528672 L27.4663764,63.2528672 Z M55.7896185,12.4574551 L63.3472357,56.0116543 L27.7876654,62.1820645 L20.2300482,18.6278653 L55.7896185,12.4574551 L55.7896185,12.4574551 Z M23.6909857,68.613707 L59.094306,62.4706406 C59.2241888,62.4481797 59.3403998,62.3744492 59.4175482,62.2660508 C59.4937201,62.1576524 59.5239935,62.0228867 59.500556,61.8925156 L58.9058294,58.4662461 C58.8579778,58.1942734 58.6060247,58.0136094 58.3277044,58.0590195 C58.05622,58.1063828 57.8736028,58.3651718 57.9214544,58.6371445 L58.4302435,61.5707383 L24.0122747,67.5429063 L16.6528997,25.1307969 L19.5864935,24.6220078 C19.8579779,24.5746445 20.0405951,24.3158555 19.9927435,24.0438828 C19.9458685,23.7714219 19.6909857,23.5897812 19.4146185,23.6366562 L15.9888373,24.2308945 C15.8589545,24.2533554 15.7427435,24.3270859 15.6655951,24.4354843 C15.5894232,24.5438827 15.5591498,24.6781601 15.5825873,24.8090195 L23.1128607,68.2064804 C23.1548529,68.4496445 23.3657904,68.6210312 23.6040716,68.6210312 C23.632392,68.6210312 23.6616889,68.6185898 23.6909857,68.613707 L23.6909857,68.613707 Z" id="Shape" sketch:type="MSShapeGroup"></path>
        </g>
    </g>
</svg>

<svg width="80" height="80" xmlns="http://www.w3.org/2000/svg"><g id="Page-1" stroke="none" stroke-width="1" fill="none" fill-rule="evenodd"><g id="business-set1-02" fill="#CD2122"><path d="M29.412 40.563l26.266-4.557a.5.5 0 10-.172-.986L29.24 39.578a.5.5 0 10.172.985zm2.773 15.989l26.268-4.558a.498.498 0 00.406-.578l-1.784-10.278a.497.497 0 00-.578-.408L30.23 45.288a.5.5 0 00-.406.578l1.783 10.278a.497.497 0 00.578.408zm23.99-14.75l1.614 9.292-25.283 4.387-1.612-9.293L56.175 41.8zM49.316 53.58a.5.5 0 00.406-.579l-1.585-9.136a.5.5 0 10-.984.171l1.585 9.136a.5.5 0 00.578.408zM34.003 34.497a6.897 6.897 0 004.473-2.819 6.795 6.795 0 001.17-5.135c-.572-3.296-3.432-5.689-6.799-5.689-.397 0-.8.035-1.195.103a6.895 6.895 0 00-4.472 2.82 6.797 6.797 0 00-1.17 5.133c.573 3.297 3.432 5.69 6.798 5.69.398 0 .799-.034 1.195-.103zm4.658-7.783a5.805 5.805 0 01-1 4.385 5.9 5.9 0 01-3.83 2.413 6 6 0 01-1.023.089c-2.879 0-5.324-2.045-5.813-4.862a5.807 5.807 0 011-4.383 5.903 5.903 0 013.829-2.413 6.01 6.01 0 011.023-.089c2.88 0 5.324 2.044 5.814 4.86zm7.089 6.309l9.135-1.586a.5.5 0 10-.172-.985l-9.135 1.586a.5.5 0 10.172.985zm-.992-5.71l9.137-1.586a.5.5 0 10-.172-.985l-9.137 1.585a.5.5 0 10.172.985zm-.99-5.71l9.136-1.586a.5.5 0 10-.172-.985l-9.137 1.585a.5.5 0 10.172.985zm-10.628 6.55l5.71-.991a.5.5 0 10-.172-.986l-5.217.905-.906-5.217a.5.5 0 10-.984.17l.991 5.711a.5.5 0 00.578.407zm-5.674 35.1l36.545-6.341a.5.5 0 00.407-.579l-7.729-44.54a.497.497 0 00-.578-.406l-36.545 6.341a.5.5 0 00-.406.578l7.728 44.54a.497.497 0 00.578.407zM55.79 12.457l7.557 43.555-35.56 6.17-7.557-43.554 35.56-6.17zm-32.1 56.157l35.403-6.143a.498.498 0 00.406-.578l-.594-3.427a.499.499 0 10-.985.171l.51 2.934-34.419 5.972-7.36-42.412 2.934-.509a.5.5 0 10-.171-.985l-3.426.594a.497.497 0 00-.406.578l7.53 43.397a.5.5 0 00.578.408z" id="Shape"/></g></g></svg>
